incomeartour/img/icons/calendar.svg

<svg width="10" height="11" viewBox="0 0 10 11" fill="none" xmlns="http://www.w3.org/2000/svg">
<path d="M8.63641 1.40909H8.18186V0.5H7.27277V1.40909H2.72732V0.5H1.81823V1.40909H1.36368C0.863681 1.40909 0.45459 1.81818 0.45459 2.31818V9.59091C0.45459 10.0909 0.863681 10.5 1.36368 10.5H8.63641C9.13641 10.5 9.5455 10.0909 9.5455 9.59091V2.31818C9.5455 1.81818 9.13641 1.40909 8.63641 1.40909ZM8.63641 9.59091H1.36368V4.59091H8.63641V9.59091ZM8.63641 3.68182H1.36368V2.31818H8.63641V3.68182Z" fill="white"/>
</svg>

<svg width="10" height="11" fill="none" xmlns="http://www.w3.org/2000/svg"><path d="M8.636 1.41h-.454V.5h-.91v.91H2.728V.5h-.909v.91h-.454c-.5 0-.91.408-.91.908v7.273c0 .5.41.909.91.909h7.272c.5 0 .91-.41.91-.91V2.319c0-.5-.41-.909-.91-.909zm0 8.18H1.364v-5h7.272v5zm0-5.908H1.364V2.318h7.272v1.364z" fill="#fff"/></svg>
